X:1
T:Like a Bird to Thee
T:William Howard Doane, 1875
T:Like a Bird to Thee
T:Public Domain
T:Public Domain
C:William Howard Doane, 1875
Z:Public Domain
%%score 1 ( 2 3 )
L:1/8
M:4/4
K:Bb
V:1 treble 
V:2 bass 
V:3 bass 
V:1
 [Fd]2 [DB]2 [DF]3 [B,D] | [DF]2 [FB]2 [Fd]4 | [Fc]2 [Fc]>[Fd] [Fc]2 [FB][Fc] | [Fd]3 [Ec] [DB]4 | %4
w: 1.~Sav- ior, like a|bird to Thee,|Wea- ry and wound- ed my|soul would flee;|
w: 2.~Sav- ior, Thou my|grief hast borne,|Thou hast a balm for the|hearts that mourn;|
w: 3.~I was lost till|found by Thee;|Thine, bless- èd Sav- ior, the|glo- ry be;|
 [EG]2 [GB]>[FA] [GB]3 [EG] | [DF]2 [FB]2 [Fd]4 | [Fc][Fc] [Fc]2 [Fc][FB] [Fc]2 | %7
w: O let me fold my|wings and rest|Peace- ful- ly, trust- ing- ly,|
w: One gen- tle word, and|I shall rest|Hope- ful- ly, lov- ing- ly,|
w: Glad- ly I fold my|wings and rest,|Lov- ing- ly, ten- der- ly,|
 [Fd]3 [Ec] [DB]4 ||"^Refrain" [DB]3 [Ec] [Fd]4 | [Fd]>[Ec] [DB]>[DF] [DB]4 | [FA]3 [FB] [Fc]4 | %11
w: on Thy breast.||||
w: on Thy breast.|Like a bird|let me fly to Thee,|In Thine arms|
w: on Thy breast.||||
 [Fe][Fd][Fc][FB] [Fc]4 | [Fd]2 [DB]2 [DF]3 [B,D] | [DF]2 [FB]2 [Fd]4 | %14
w: |||
w: kind- ly shel- ter me;|Then my soul no|more shall roam|
w: |||
 [Fc]2 [FB][Fc] [Fd]2 [Ec]2 | [DB]6 z2 |] %16
w: ||
w: Far, far a- way from|home.|
w: ||
V:2
 [B,,B,]2 [B,,B,]2 [B,,B,]3 [B,,F,] | [B,,B,]2 [B,,D]2 [B,,B,]4 | %2
 [F,A,]2 [F,A,]>[F,B,] [F,A,]2 [F,G,][F,A,] | [F,B,]3 [F,A,] [B,,B,]4 | %4
 [E,B,]2 [E,E]>[E,E] [E,E]3 [E,B,] | [B,,B,]2 [B,,D]2 [B,,B,]4 | %6
 [F,A,][F,A,] [F,A,]2 [F,A,][F,G,] [F,A,]2 | [F,B,]3 [F,A,] [B,,B,]4 || B,3 B, B,4 | %9
 [B,,B,]>[B,,F,] [B,,F,]>[B,,F,] [B,,F,]4 | F,3 [F,G,] [F,A,]4 | [F,C][F,B,][F,E][F,D] [F,A,]4 | %12
 [B,,B,]2 [B,,B,]2 [B,,B,]3 [B,,F,] | [B,,B,]2 [B,,D]2 [B,,B,]4 | %14
 [F,A,]2 [F,G,][F,A,] [F,B,]2 [F,A,]2 | [B,,B,]6 z2 |] %16
V:3
 x8 | x8 | x8 | x8 | x8 | x8 | x8 | x8 || B,3 B, B,4 | x8 | F,3 x5 | x8 | x8 | x8 | x8 | x8 |] %16

